X: 169
T: Song gege
%%abc-version 2.0
%%abcx-abcm2ps-target-version 5.9.1 (29 Sep 2008)
%%abc-creator hum2abc beta
%%abcx-conversion-date 2013/10/02 07:52:29
%%abc-edited-by Helmut Schaffrath
%%humdrum-veritas 2711263444
%%humdrum-veritas-data 2717696849
%%continueall 1
%%barnumbers 0
L: 1/16
M: 2/4
K: F
c c d fG4 [I:setbarnb 1]| 
c c d fG4 | 
c2 A c d2 f2 | 
f d c A2< G2 A | 
C2 C D G2 G A | 
C2 C DF4 | 
D2 D F D C B, A, | 
C8 |]  



